epam-assets/icon-sources/18/people.svg

<svg width="18" height="18" viewBox="0 0 18 18" fill="none" xmlns="http://www.w3.org/2000/svg">
<g id="18/people">
<g id="icon">
<path fill-rule="evenodd" clip-rule="evenodd" d="M5.625 4.875C5.625 5.90887 4.78387 6.75 3.75 6.75C2.71613 6.75 1.875 5.90887 1.875 4.875C1.875 3.84113 2.71613 3 3.75 3C4.78387 3 5.625 3.84113 5.625 4.875ZM4.5 4.875C4.5 4.46147 4.16353 4.125 3.75 4.125C3.33647 4.125 3 4.46147 3 4.875C3 5.28853 3.33647 5.625 3.75 5.625C4.16353 5.625 4.5 5.28853 4.5 4.875Z" fill="#6C6F80"/>
<path fill-rule="evenodd" clip-rule="evenodd" d="M10.875 4.875C10.875 5.90887 10.0339 6.75 9 6.75C7.96613 6.75 7.125 5.90887 7.125 4.875C7.125 3.84113 7.96613 3 9 3C10.0339 3 10.875 3.84113 10.875 4.875ZM9.75 4.875C9.75 4.46147 9.41353 4.125 9 4.125C8.58647 4.125 8.25 4.46147 8.25 4.875C8.25 5.28853 8.58647 5.625 9 5.625C9.41353 5.625 9.75 5.28853 9.75 4.875Z" fill="#6C6F80"/>
<path fill-rule="evenodd" clip-rule="evenodd" d="M14.25 6.75C15.2839 6.75 16.125 5.90887 16.125 4.875C16.125 3.84113 15.2839 3 14.25 3C13.2161 3 12.375 3.84113 12.375 4.875C12.375 5.90887 13.2161 6.75 14.25 6.75ZM14.25 4.125C14.6635 4.125 15 4.46147 15 4.875C15 5.28853 14.6635 5.625 14.25 5.625C13.8365 5.625 13.5 5.28853 13.5 4.875C13.5 4.46147 13.8365 4.125 14.25 4.125Z" fill="#6C6F80"/>
<path d="M12.375 9.375C12.375 8.34113 13.2161 7.5 14.25 7.5C15.2839 7.5 16.125 8.34113 16.125 9.375V11.0625C16.125 11.3731 15.8731 11.625 15.5625 11.625C15.2519 11.625 15 11.3731 15 11.0625V9.375C15 8.96147 14.6635 8.625 14.25 8.625C13.8365 8.625 13.5 8.96147 13.5 9.375V13.125C13.5 14.1589 12.6589 15 11.625 15C10.5911 15 9.75 14.1589 9.75 13.125V9.375C9.75 8.96147 9.41353 8.625 9 8.625C8.58647 8.625 8.25 8.96147 8.25 9.375V13.3125H8.24044C8.14613 14.2587 7.34569 15 6.375 15C5.34113 15 4.5 14.1589 4.5 13.125V9.375C4.5 8.96147 4.16353 8.625 3.75 8.625C3.33647 8.625 3 8.96147 3 9.375V11.0625C3 11.3731 2.74809 11.625 2.4375 11.625C2.12691 11.625 1.875 11.3731 1.875 11.0625V9.1875H1.88456C1.97888 8.24128 2.77941 7.5 3.75 7.5C4.78387 7.5 5.625 8.34113 5.625 9.375V13.125C5.625 13.5385 5.96147 13.875 6.375 13.875C6.78853 13.875 7.125 13.5385 7.125 13.125V9.375C7.125 8.34113 7.96613 7.5 9 7.5C10.0339 7.5 10.875 8.34113 10.875 9.375V13.125C10.875 13.5385 11.2115 13.875 11.625 13.875C12.0385 13.875 12.375 13.5385 12.375 13.125V9.375Z" fill="#6C6F80"/>
</g>
</g>
</svg>

<svg xmlns="http://www.w3.org/2000/svg" width="18" height="18" fill="none" viewBox="0 0 18 18">
  <path fill="#6C6F80" fill-rule="evenodd" d="M5.625 4.875A1.877 1.877 0 0 1 3.75 6.75a1.877 1.877 0 0 1-1.875-1.875C1.875 3.841 2.716 3 3.75 3s1.875.841 1.875 1.875Zm-1.125 0a.75.75 0 1 0-1.502.002.75.75 0 0 0 1.502-.002Zm6.375 0A1.877 1.877 0 0 1 9 6.75a1.877 1.877 0 0 1-1.875-1.875C7.125 3.841 7.966 3 9 3s1.875.841 1.875 1.875Zm-1.125 0a.75.75 0 1 0-1.502.002.75.75 0 0 0 1.502-.002Zm4.5 1.875a1.877 1.877 0 0 0 1.875-1.875A1.877 1.877 0 0 0 14.25 3a1.877 1.877 0 0 0-1.875 1.875c0 1.034.841 1.875 1.875 1.875Zm0-2.625a.75.75 0 0 1 0 1.5.75.75 0 0 1 0-1.5Z" clip-rule="evenodd"/>
  <path fill="#6C6F80" d="M12.375 9.375c0-1.034.841-1.875 1.875-1.875s1.875.841 1.875 1.875v1.688a.563.563 0 0 1-1.125 0V9.374a.75.75 0 0 0-1.5 0v3.75A1.877 1.877 0 0 1 11.625 15a1.877 1.877 0 0 1-1.875-1.875v-3.75a.75.75 0 0 0-1.5 0v3.938h-.01A1.877 1.877 0 0 1 6.375 15 1.877 1.877 0 0 1 4.5 13.125v-3.75a.75.75 0 0 0-1.5 0v1.688a.563.563 0 0 1-1.125 0V9.187h.01A1.877 1.877 0 0 1 3.75 7.5c1.034 0 1.875.841 1.875 1.875v3.75a.75.75 0 0 0 1.5 0v-3.75C7.125 8.341 7.966 7.5 9 7.5s1.875.841 1.875 1.875v3.75a.75.75 0 0 0 1.5 0v-3.75Z"/>
</svg>
